X: 18752
T: Ievan Polkka
R: polka
M: 2/4
K: Eminor
|:e>d ef|ge eg|fd df|g/f/e/d/ eB|
e>d ef|ge e2|a2 gf|1 ed eB:|2 ef ga||
b>g gb|af fg|a2 gf|ef ga|
b>g gb|af fg|a2 gf|ed e2|
b>g gb|af fg|a2 gf|ed eB|
e>d ef|ge eg|fd df|g/f/e/d/ eB||

